src/components/common/icons/person.svg

<?xml version="1.0" encoding="UTF-8"?>
<svg width="48px" height="55px" viewBox="0 0 48 55" version="1.1" xmlns="http://www.w3.org/2000/svg" xmlns:xlink="http://www.w3.org/1999/xlink">
    <!-- Generator: Sketch 52.5 (67469) - http://www.bohemiancoding.com/sketch -->
    <title>Icons/.person</title>
    <desc>Created with Sketch.</desc>
    <g id="Vapaaehtoisalusta-Layouts" stroke="none" stroke-width="1" fill="none" fill-rule="evenodd">
        <g id="HKI-Ikonit" transform="translate(-176.000000, -654.000000)" fill="#010202">
            <g id="Icons/.person" transform="translate(176.000000, 654.000000)">
                <path d="M24.3736,4.82192 C29.1624,4.82192 33.0568,8.71952 33.0568,13.50512 C33.0568,18.29392 29.1624,22.18832 24.3736,22.18832 C19.5848,22.18832 15.6904,18.29392 15.6904,13.50512 C15.6904,8.71952 19.5848,4.82192 24.3736,4.82192 M24.3736,0.65552 C17.276,0.65552 11.5224,6.40752 11.5224,13.50512 C11.5224,20.60272 17.276,26.35792 24.3736,26.35792 C31.4728,26.35792 37.2248,20.60272 37.2248,13.50512 C37.2248,6.40752 31.4728,0.65552 24.3736,0.65552" id="Fill-81"></path>
                <path d="M35.48928,33.9984 C40.08608,33.9984 43.82528,37.7376 43.82528,42.3344 L43.82528,50.6704 L4.92288,50.6704 L4.92288,42.336 C4.92288,37.7376 8.66208,33.9984 13.25888,33.9984 L35.48928,33.9984 Z M35.48928,29.832 L13.25888,29.832 C6.35328,29.832 0.75488,35.4304 0.75488,42.336 L0.75488,54.8384 L47.99168,54.8384 L47.99168,42.3344 C47.99168,35.4304 42.39328,29.832 35.48928,29.832 Z" id="Fill-82"></path>
            </g>
        </g>
    </g>
</svg>

<svg height="55" viewBox="0 0 48 55" width="48" xmlns="http://www.w3.org/2000/svg"><g fill="#010202" fill-rule="evenodd"><path d="m24.3736 4.82192c4.7888 0 8.6832 3.8976 8.6832 8.6832 0 4.7888-3.8944 8.6832-8.6832 8.6832s-8.6832-3.8944-8.6832-8.6832c0-4.7856 3.8944-8.6832 8.6832-8.6832m0-4.1664c-7.0976 0-12.8512 5.752-12.8512 12.8496s5.7536 12.8528 12.8512 12.8528c7.0992 0 12.8512-5.7552 12.8512-12.8528s-5.752-12.8496-12.8512-12.8496"/><path d="m35.48928 33.9984c4.5968 0 8.336 3.7392 8.336 8.336v8.336h-38.9024v-8.3344c0-4.5984 3.7392-8.3376 8.336-8.3376zm0-4.1664h-22.2304c-6.9056 0-12.504 5.5984-12.504 12.504v12.5024h47.2368v-12.504c0-6.904-5.5984-12.5024-12.5024-12.5024z"/></g></svg>
